Papirus/22x22/panel/state-warning.svg

<?xml version="1.0" encoding="UTF-8" standalone="no"?>
<svg xmlns:osb="http://www.openswatchbook.org/uri/2009/osb" xmlns:dc="http://purl.org/dc/elements/1.1/" xmlns:cc="http://creativecommons.org/ns#" xmlns:rdf="http://www.w3.org/1999/02/22-rdf-syntax-ns#" xmlns:svg="http://www.w3.org/2000/svg" xmlns="http://www.w3.org/2000/svg" width="22" version="1.1" style="enable-background:new" id="svg7384" height="22">
    <metadata id="metadata90">
        <rdf:RDF>
            <cc:Work rdf:about="">
                <dc:format>
                    image/svg+xml
                </dc:format>
                <dc:type rdf:resource="http://purl.org/dc/dcmitype/StillImage"/>
                <dc:title>
                    Paper Symbolic Icon Theme
                </dc:title>
            </cc:Work>
        </rdf:RDF>
    </metadata>
    <title id="title8473">
        Paper Symbolic Icon Theme
    </title>
    <defs id="defs7386">
        <linearGradient osb:paint="solid" id="linearGradient5606">
            <stop style="stop-color:#000000;stop-opacity:1;" offset="0" id="stop5608"/>
        </linearGradient>
    </defs>
    <g transform="translate(-385.0004,125.00336)" style="display:inline" id="layer12">
        <path id="path4140" transform="translate(385.0004,-125.00336)" d="M 10.912109 3.0019531 A 1.6243072 1.818542 0 0 0 9.59375 3.9082031 L 6.40625 10.089844 L 3.2167969 16.271484 A 1.6243072 1.818542 0 0 0 3 17.138672 A 1.6243072 1.818542 0 0 0 4.6230469 19 L 11 19 L 17.375 19 A 1.6243072 1.818542 0 0 0 18.78125 16.271484 L 15.59375 10.089844 L 12.40625 3.9082031 A 1.6243072 1.818542 0 0 0 11.074219 3.0019531 A 1.6243072 1.818542 0 0 0 10.912109 3.0019531 z M 10 7 L 12 7 L 12 14 L 10 14 L 10 7 z M 10 15 L 12 15 L 12 17 L 10 17 L 10 15 z " style="opacity:1;fill:#ffffff;fill-opacity:1;stroke:none;stroke-width:3;stroke-linecap:round;stroke-linejoin:round;stroke-miterlimit:4;stroke-dasharray:none;stroke-dashoffset:0;stroke-opacity:1"/>
    </g>
</svg>

<?xml version="1.0" encoding="UTF-8" standalone="no"?>
<svg id="svg7384" xmlns:rdf="http://www.w3.org/1999/02/22-rdf-syntax-ns#" style="enable-background:new" xmlns="http://www.w3.org/2000/svg" xmlns:osb="http://www.openswatchbook.org/uri/2009/osb" height="22" width="22" version="1.1" xmlns:cc="http://creativecommons.org/ns#" xmlns:dc="http://purl.org/dc/elements/1.1/">
 <metadata id="metadata90">
  <rdf:RDF>
   <cc:Work rdf:about="">
    <dc:format>image/svg+xml</dc:format>
    <dc:type rdf:resource="http://purl.org/dc/dcmitype/StillImage"/>
   </cc:Work>
  </rdf:RDF>
 </metadata>
 <g id="layer12" transform="translate(-385 125)">
  <path id="path4140" d="m10.912 3.002a1.6243 1.8185 0 0 0 -1.3182 0.9062l-3.1876 6.1818-3.1894 6.181a1.6243 1.8185 0 0 0 -0.2168 0.868 1.6243 1.8185 0 0 0 1.623 1.861h6.377 6.375a1.6243 1.8185 0 0 0 1.406 -2.729l-3.187-6.181-3.188-6.1818a1.6243 1.8185 0 0 0 -1.332 -0.9062 1.6243 1.8185 0 0 0 -0.162 0zm-0.912 3.998h2v7h-2v-7zm0 8h2v2h-2v-2z" transform="translate(385 -125)" fill="#fff"/>
 </g>
</svg>
